; generated by Slic3r 1.34.1-prusa3d-win64 on 2017-08-27 at 18:54:05

; external perimeters extrusion width = 0.45mm
; perimeters extrusion width = 0.45mm
; infill extrusion width = 0.45mm
; solid infill extrusion width = 0.45mm
; top infill extrusion width = 0.40mm
; support material extrusion width = 0.35mm

M107
M115 U3.0.11 ; tell printer latest fw version
M83  ; extruder relative mode
M104 S215 ; set extruder temp
M140 S55 ; set bed temp
M190 S55 ; wait for bed temp
M109 S215 ; wait for extruder temp
G28 W ; home all without mesh bed level
G80 ; mesh bed leveling
G1 Y-3.0 F1000.0 ; go outside pritn area
G1 X60.0 E9.0  F1000.0 ; intro line
G1 X100.0 E12.5  F1000.0 ; intro line
G21 ; set units to millimeters
G90 ; use absolute coordinates
M83 ; use relative distances for extrusion
G1 E-0.80000 F2100.00000
G1 Z0.200 F7200.000
G1 X114.225 Y96.006 F7200.000
G1 E0.80000 F2100.00000
M204 S1000
G1 F1382.08
G1 X115.594 Y94.687 E0.05961
G1 X116.201 Y94.382 E0.02129
G1 X116.867 Y94.233 E0.02141
G1 X133.034 Y94.221 E0.50688
G1 X133.559 Y94.272 E0.01656
G1 X134.065 Y94.422 E0.01656
G1 X134.530 Y94.663 E0.01643
G1 X134.944 Y94.991 E0.01656
G1 X136.063 Y96.472 E0.05819
G1 X136.292 Y96.962 E0.01694
G1 X136.419 Y97.482 E0.01681
G1 X136.446 Y112.145 E0.45973
G1 X136.275 Y113.006 E0.02752
G1 X135.842 Y113.769 E0.02752
G1 X133.820 Y115.774 E0.08927
G1 X133.165 Y116.136 E0.02345
G1 X132.442 Y116.308 E0.02333
G1 X117.410 Y116.319 E0.47132
G1 X116.549 Y116.148 E0.02752
G1 X115.785 Y115.715 E0.02752
G1 X113.947 Y113.585 E0.08822
G1 X113.638 Y112.962 E0.02180
G1 X113.494 Y112.278 E0.02192
G1 X113.476 Y98.360 E0.43638
G1 X113.749 Y96.893 E0.04679
G1 X114.197 Y96.059 E0.02969
G1 X114.527 Y96.237 F7200.000
G1 F1382.08
G1 X115.793 Y95.008 E0.05532
G1 X116.328 Y94.737 E0.01882
G1 X116.918 Y94.607 E0.01894
G1 X133.034 Y94.598 E0.50529
G1 X133.932 Y94.774 E0.02872
G1 X134.700 Y95.280 E0.02884
G1 X135.740 Y96.666 E0.05432
G1 X136.050 Y97.564 E0.02977
G1 X136.069 Y112.123 E0.45648
G1 X135.919 Y112.881 E0.02426
G1 X135.533 Y113.552 E0.02426
G1 X133.610 Y115.460 E0.08494
G1 X133.037 Y115.781 E0.02060
G1 X132.398 Y115.933 E0.02060
G1 X117.432 Y115.942 E0.46925
G1 X116.673 Y115.792 E0.02426
G1 X116.003 Y115.406 E0.02426
G1 X114.269 Y113.388 E0.08343
G1 X113.995 Y112.841 E0.01917
G1 X113.869 Y112.238 E0.01929
G1 X113.853 Y98.384 E0.43438
G1 X114.106 Y97.017 E0.04361
G1 X114.498 Y96.290 E0.02590
G1 F5760
G1 X115.793 Y95.008 E-0.63091
G1 F5760
G1 X116.125 Y94.840 E-0.12909
G1 E-0.04000 F2100.00000
G1 X117.508 Y113.567 F7200.000
G1 E0.80000 F2100.00000
G1 F1382.08
G1 X132.173 Y113.567 E0.45981
G1 X132.927 Y112.812 E0.03344
G1 X116.994 Y112.812 E0.49958
G1 X116.240 Y112.058 E0.03344
G1 X133.681 Y112.058 E0.54687
G1 X133.693 Y111.304 E0.02365
G1 X116.228 Y111.304 E0.54762
G1 X116.228 Y110.550 E0.02365
G1 X133.693 Y110.550 E0.54762
G1 X133.693 Y109.796 E0.02365
G1 X116.228 Y109.796 E0.54762
G1 X116.228 Y109.042 E0.02365
G1 X133.693 Y109.042 E0.54762
G1 X133.693 Y108.287 E0.02365
G1 X116.228 Y108.287 E0.54762
G1 X116.228 Y107.533 E0.02365
G1 X133.693 Y107.533 E0.54762
G1 X133.693 Y106.779 E0.02365
G1 X116.228 Y106.779 E0.54762
G1 X116.228 Y106.025 E0.02365
G1 X133.693 Y106.025 E0.54762
G1 X133.693 Y105.271 E0.02365
G1 X116.228 Y105.271 E0.54762
G1 X116.228 Y104.517 E0.02365
G1 X133.693 Y104.517 E0.54762
G1 X133.693 Y103.762 E0.02365
G1 X116.228 Y103.762 E0.54762
G1 X116.228 Y103.008 E0.02365
G1 X133.693 Y103.008 E0.54762
G1 X133.693 Y102.254 E0.02365
G1 X116.228 Y102.254 E0.54762
G1 X116.228 Y101.500 E0.02365
G1 X133.693 Y101.500 E0.54762
G1 X133.693 Y100.746 E0.02365
G1 X116.228 Y100.746 E0.54762
G1 X116.228 Y99.992 E0.02365
G1 X133.693 Y99.992 E0.54762
G1 X133.693 Y99.238 E0.02365
G1 X116.228 Y99.238 E0.54762
G1 X116.228 Y98.483 E0.02365
G1 X133.693 Y98.483 E0.54762
G1 X133.693 Y97.875 E0.01908
G1 X133.548 Y97.729 E0.00646
G1 X116.374 Y97.729 E0.53848
G1 X117.128 Y96.975 E0.03344
G1 X133.034 Y96.975 E0.49872
M106 S255
M104 S205 ; set temperature
G1 F5760
G1 X130.839 Y96.975 E-0.76000
G1 E-0.04000 F2100.00000
G1 Z0.500 F7200.000
G1 X118.965 Y98.555 F7200.000
G1 E0.80000 F2100.00000
G1 F900
G1 X118.965 Y111.228 E0.45148
G1 X119.472 Y111.228 E0.01806
G1 X119.472 Y98.693 E0.44656
G1 X119.979 Y98.693 E0.01806
G1 X119.979 Y111.228 E0.44656
G1 X120.486 Y111.228 E0.01806
G1 X120.486 Y98.693 E0.44656
G1 X120.993 Y98.693 E0.01806
G1 X120.993 Y111.228 E0.44656
G1 X121.500 Y111.228 E0.01806
G1 X121.500 Y98.693 E0.44656
G1 X122.007 Y98.693 E0.01806
G1 X122.007 Y111.228 E0.44656
G1 X122.514 Y111.228 E0.01806
G1 X122.514 Y98.693 E0.44656
G1 X123.021 Y98.693 E0.01806
G1 X123.021 Y111.228 E0.44656
G1 X123.528 Y111.228 E0.01806
G1 X123.528 Y98.693 E0.44656
G1 X124.035 Y98.693 E0.01806
G1 X124.035 Y111.228 E0.44656
G1 X124.542 Y111.228 E0.01806
G1 X124.542 Y98.693 E0.44656
G1 X125.050 Y98.693 E0.01806
G1 X125.050 Y111.228 E0.44656
G1 X125.557 Y111.228 E0.01806
G1 X125.557 Y98.693 E0.44656
G1 X126.064 Y98.693 E0.01806
G1 X126.064 Y111.228 E0.44656
G1 X126.571 Y111.228 E0.01806
G1 X126.571 Y98.693 E0.44656
G1 X127.078 Y98.693 E0.01806
G1 X127.078 Y111.228 E0.44656
G1 X127.585 Y111.228 E0.01806
G1 X127.585 Y98.693 E0.44656
G1 X128.092 Y98.693 E0.01806
G1 X128.092 Y111.228 E0.44656
G1 X128.599 Y111.228 E0.01806
G1 X128.599 Y98.693 E0.44656
G1 X129.106 Y98.693 E0.01806
G1 X129.106 Y111.228 E0.44656
G1 X129.613 Y111.228 E0.01806
G1 X129.613 Y98.693 E0.44656
G1 X130.120 Y98.693 E0.01806
G1 X130.120 Y111.228 E0.44656
G1 X130.627 Y111.228 E0.01806
G1 X130.627 Y98.693 E0.44656
G1 X131.025 Y98.693 E0.01418
G1 X131.135 Y98.802 E0.00550
G1 X131.135 Y111.315 E0.44575
G1 F5760
G1 X131.135 Y109.120 E-0.76000
G1 E-0.04000 F2100.00000
G1 Z0.800 F7200.000
G1 X130.627 Y110.867 F7200.000
G1 E0.80000 F2100.00000
G1 F1304.02
G1 X130.627 Y99.193 E0.41586
G1 X130.120 Y99.193 E0.01806
G1 X130.120 Y110.728 E0.41094
G1 X129.613 Y110.728 E0.01806
G1 X129.613 Y99.193 E0.41094
G1 X129.106 Y99.193 E0.01806
G1 X129.106 Y110.728 E0.41094
G1 X128.599 Y110.728 E0.01806
G1 X128.599 Y99.193 E0.41094
G1 X128.092 Y99.193 E0.01806
G1 X128.092 Y110.728 E0.41094
G1 X127.585 Y110.728 E0.01806
G1 X127.585 Y99.193 E0.41094
G1 X127.078 Y99.193 E0.01806
G1 X127.078 Y110.728 E0.41094
G1 X126.571 Y110.728 E0.01806
G1 X126.571 Y99.193 E0.41094
G1 X126.064 Y99.193 E0.01806
G1 X126.064 Y110.728 E0.41094
G1 X125.557 Y110.728 E0.01806
G1 X125.557 Y99.193 E0.41094
G1 X125.050 Y99.193 E0.01806
G1 X125.050 Y110.728 E0.41094
G1 X124.542 Y110.728 E0.01806
G1 X124.542 Y99.193 E0.41094
G1 X124.035 Y99.193 E0.01806
G1 X124.035 Y110.728 E0.41094
G1 X123.528 Y110.728 E0.01806
G1 X123.528 Y99.193 E0.41094
G1 X123.021 Y99.193 E0.01806
G1 X123.021 Y110.728 E0.41094
G1 X122.514 Y110.728 E0.01806
G1 X122.514 Y99.193 E0.41094
G1 X122.007 Y99.193 E0.01806
G1 X122.007 Y110.728 E0.41094
G1 X121.500 Y110.728 E0.01806
G1 X121.500 Y99.193 E0.41094
G1 X120.993 Y99.193 E0.01806
G1 X120.993 Y110.728 E0.41094
G1 X120.486 Y110.728 E0.01806
G1 X120.486 Y99.193 E0.41094
G1 X119.979 Y99.193 E0.01806
G1 X119.979 Y110.728 E0.41094
G1 X119.472 Y110.728 E0.01806
G1 X119.472 Y99.055 E0.41586
G1 F5760
G1 X119.472 Y101.249 E-0.76000
G1 E-0.04000 F2100.00000
G1 Z1.300 F7200.000
G1 Z1.800 F7200.000
G1 X123.559 Y103.283 F7200.000
G1 Z1.300 F7200.000
G1 E0.80000 F2100.00000
M204 S800
G1 F900
G1 X123.879 Y103.059 E0.02366
G1 X124.233 Y102.894 E0.02366
G1 X124.611 Y102.793 E0.02366
G1 X125.000 Y102.759 E0.02366
G1 X125.389 Y102.793 E0.02366
G1 X125.767 Y102.894 E0.02366
G1 X126.121 Y103.059 E0.02366
G1 X126.441 Y103.283 E0.02366
G1 X126.717 Y103.559 E0.02366
G1 X126.941 Y103.879 E0.02366
G1 X127.106 Y104.233 E0.02366
G1 X127.207 Y104.611 E0.02366
G1 X127.241 Y105.000 E0.02366
G1 X127.207 Y105.389 E0.02366
G1 X127.106 Y105.767 E0.02366
G1 X126.941 Y106.121 E0.02366
G1 X126.717 Y106.441 E0.02366
G1 X126.441 Y106.717 E0.02366
G1 X126.121 Y106.941 E0.02366
G1 X125.767 Y107.106 E0.02366
G1 X125.389 Y107.207 E0.02366
G1 X125.000 Y107.241 E0.02366
G1 X124.611 Y107.207 E0.02366
G1 X124.233 Y107.106 E0.02366
G1 X123.879 Y106.941 E0.02366
G1 X123.559 Y106.717 E0.02366
G1 X123.283 Y106.441 E0.02366
G1 X123.059 Y106.121 E0.02366
G1 X122.894 Y105.767 E0.02366
G1 X122.793 Y105.389 E0.02366
G1 X122.759 Y105.000 E0.02366
G1 X122.793 Y104.611 E0.02366
G1 X122.894 Y104.233 E0.02366
G1 X123.059 Y103.879 E0.02366
G1 X123.283 Y103.559 E0.02366
G1 X123.517 Y103.325 E0.02003
M204 S1000
G1 X123.774 Y103.583 F7200.000
M204 S800
G1 F900
G1 X124.062 Y103.375 E0.02148
G1 X124.358 Y103.237 E0.01980
G1 X124.674 Y103.153 E0.01980
G1 X125.000 Y103.124 E0.01980
G1 X125.326 Y103.153 E0.01980
G1 X125.642 Y103.237 E0.01980
G1 X125.938 Y103.375 E0.01980
G1 X126.206 Y103.563 E0.01980
G1 X126.437 Y103.794 E0.01980
G1 X126.625 Y104.062 E0.01980
G1 X126.763 Y104.358 E0.01980
G1 X126.847 Y104.674 E0.01980
G1 X126.876 Y105.000 E0.01980
G1 X126.847 Y105.326 E0.01980
G1 X126.763 Y105.642 E0.01980
G1 X126.625 Y105.938 E0.01980
G1 X126.437 Y106.206 E0.01980
G1 X126.206 Y106.437 E0.01980
G1 X125.938 Y106.625 E0.01980
G1 X125.642 Y106.763 E0.01980
G1 X125.326 Y106.847 E0.01980
G1 X125.000 Y106.876 E0.01980
G1 X124.674 Y106.847 E0.01980
G1 X124.358 Y106.763 E0.01980
G1 X124.062 Y106.625 E0.01980
G1 X123.794 Y106.437 E0.01980
G1 X123.563 Y106.206 E0.01980
G1 X123.375 Y105.938 E0.01980
G1 X123.237 Y105.642 E0.01980
G1 X123.153 Y105.326 E0.01980
G1 X123.124 Y105.000 E0.01980
G1 X123.153 Y104.674 E0.01980
G1 X123.237 Y104.358 E0.01980
G1 X123.375 Y104.062 E0.01980
G1 X123.563 Y103.794 E0.01980
G1 X123.732 Y103.625 E0.01446
M204 S1000
G1 X123.709 Y103.234 F7200.000
G1 F5760
G1 X124.062 Y103.375 E-0.14341
G1 F5760
G1 X124.358 Y103.237 E-0.11325
G1 F5760
G1 X124.674 Y103.153 E-0.11325
G1 F5760
G1 X125.000 Y103.124 E-0.11325
G1 F5760
G1 X125.326 Y103.153 E-0.11325
G1 F5760
G1 X125.642 Y103.237 E-0.11325
G1 F5760
G1 X125.773 Y103.299 E-0.05033
G1 E-0.04000 F2100.00000
G1 Z1.800 F7200.000
G1 X122.959 Y102.853 F7200.000
G1 Z1.300 F7200.000
G1 E0.80000 F2100.00000
M204 S800
G1 F900
G1 X122.817 Y102.995 E0.01216
G1 X122.817 Y102.817 E0.01074
G1 X122.985 Y102.817 E0.01013
M204 S1000
G1 X122.453 Y102.453 F7200.000
M204 S800
G1 F900
G1 X124.470 Y102.453 E0.12214
G1 X124.108 Y102.550 E0.02268
G1 X123.697 Y102.742 E0.02752
G1 X123.324 Y103.003 E0.02752
G1 X123.003 Y103.324 E0.02752
G1 X122.742 Y103.697 E0.02752
G1 X122.550 Y104.108 E0.02752
G1 X122.453 Y104.470 E0.02268
G1 X122.453 Y102.513 E0.11851
M204 S1000
G1 F5760
G1 X124.470 Y102.453 E-0.69885
G1 F5760
G1 X124.300 Y102.499 E-0.06115
G1 E-0.04000 F2100.00000
G1 Z1.800 F7200.000
G1 X122.817 Y107.005 F7200.000
G1 Z1.300 F7200.000
G1 E0.80000 F2100.00000
M204 S800
G1 F900
G1 X122.995 Y107.183 E0.01518
G1 X122.817 Y107.183 E0.01074
G1 X122.817 Y107.065 E0.00710
M204 S1000
G1 X122.453 Y107.547 F7200.000
M204 S800
G1 F900
G1 X122.453 Y105.530 E0.12214
G1 X122.550 Y105.892 E0.02268
G1 X122.742 Y106.303 E0.02752
G1 X123.003 Y106.676 E0.02752
G1 X123.324 Y106.997 E0.02752
G1 X123.697 Y107.258 E0.02752
G1 X124.108 Y107.450 E0.02752
G1 X124.470 Y107.547 E0.02268
G1 X122.513 Y107.547 E0.11851
M204 S1000
G1 F5760
G1 X122.453 Y105.530 E-0.69885
G1 F5760
G1 X122.499 Y105.700 E-0.06115
G1 E-0.04000 F2100.00000
G1 Z1.800 F7200.000
G1 X127.124 Y102.936 F7200.000
G1 Z1.300 F7200.000
G1 E0.80000 F2100.00000
M204 S800
G1 F900
G1 X127.005 Y102.817 E0.01016
G1 X127.183 Y102.817 E0.01074
G1 X127.183 Y102.995 E0.01074
G1 X127.166 Y102.979 E0.00139
M204 S1000
G1 F5760
G1 X127.005 Y102.817 E-0.07889
G1 F5760
G1 X127.183 Y102.817 E-0.06140
G1 F5760
G1 X127.183 Y102.995 E-0.06140
G1 F5760
G1 X127.166 Y102.979 E-0.00794
G1 E-0.59036 F2100.00000
G1 Z1.800 F7200.000
G1 X127.547 Y104.470 F7200.000
G1 Z1.300 F7200.000
G1 E0.80000 F2100.00000
M204 S800
G1 F900
G1 X127.450 Y104.108 E0.02268
G1 X127.258 Y103.697 E0.02752
G1 X126.997 Y103.324 E0.02752
G1 X126.676 Y103.003 E0.02752
G1 X126.303 Y102.742 E0.02752
G1 X125.892 Y102.550 E0.02752
G1 X125.530 Y102.453 E0.02268
G1 X127.547 Y102.453 E0.12214
G1 X127.547 Y104.410 E0.11851
M204 S1000
G1 F5760
G1 X127.450 Y104.108 E-0.10979
G1 F5760
G1 X127.258 Y103.697 E-0.15739
G1 F5760
G1 X126.997 Y103.324 E-0.15739
G1 F5760
G1 X126.676 Y103.003 E-0.15739
G1 F5760
G1 X126.303 Y102.742 E-0.15739
G1 F5760
G1 X126.249 Y102.717 E-0.02065
G1 E-0.04000 F2100.00000
G1 Z1.800 F7200.000
G1 X127.183 Y107.005 F7200.000
G1 Z1.300 F7200.000
G1 E0.80000 F2100.00000
M204 S800
G1 F900
G1 X127.183 Y107.183 E0.01074
G1 X127.005 Y107.183 E0.01074
G1 X127.140 Y107.048 E0.01155
M204 S1000
G1 X127.547 Y107.547 F7200.000
M204 S800
G1 F900
G1 X125.530 Y107.547 E0.12214
G1 X125.892 Y107.450 E0.02268
G1 X126.303 Y107.258 E0.02752
G1 X126.676 Y106.997 E0.02752
G1 X126.997 Y106.676 E0.02752
G1 X127.258 Y106.303 E0.02752
G1 X127.450 Y105.892 E0.02752
G1 X127.547 Y105.530 E0.02268
G1 X127.547 Y107.487 E0.11851
M204 S1000
G1 X127.911 Y107.911 F7200.000
M204 S800
G1 F900
G1 X122.089 Y107.911 E0.35256
G1 X122.089 Y102.089 E0.35256
G1 X127.911 Y102.089 E0.35256
G1 X127.911 Y107.851 E0.34893
M204 S1000
G1 X128.275 Y108.275 F7200.000
M204 S800
G1 F900
G1 X121.725 Y108.275 E0.39667
G1 X121.725 Y101.725 E0.39667
G1 X128.275 Y101.725 E0.39667
G1 X128.275 Y108.215 E0.39303
M204 S1000
G1 X127.889 Y108.171 F7200.000
G1 F5760
G1 X126.081 Y108.235 E-0.76000
G1 E-0.04000 F2100.00000
G1 Z1.800 F7200.000
G1 X127.562 Y105.348 F7200.000
G1 Z1.300 F7200.000
G1 E0.80000 F2100.00000
G1 F1043.21
G1 X127.576 Y105.013 E0.01307
G1 X127.562 Y104.652 E0.01411
G1 F5760
G1 X127.576 Y105.013 E-0.12528
G1 F5760
G1 X127.562 Y105.348 E-0.11608
G1 E-0.55863 F2100.00000
G1 Z1.800 F7200.000
G1 X125.348 Y102.438 F7200.000
G1 Z1.300 F7200.000
G1 E0.80000 F2100.00000
G1 F1043.21
G1 X125.013 Y102.424 E0.01307
G1 X124.652 Y102.438 E0.01411
G1 F5760
G1 X125.013 Y102.424 E-0.12529
G1 F5760
G1 X125.348 Y102.438 E-0.11608
G1 E-0.55863 F2100.00000
G1 Z1.800 F7200.000
G1 X122.438 Y104.652 F7200.000
G1 Z1.300 F7200.000
G1 E0.80000 F2100.00000
G1 F1043.21
G1 X122.424 Y104.987 E0.01307
G1 X122.438 Y105.348 E0.01411
G1 F5760
G1 X122.424 Y104.987 E-0.12529
G1 F5760
G1 X122.438 Y104.652 E-0.11608
G1 E-0.55863 F2100.00000
G1 Z1.800 F7200.000
G1 X124.652 Y107.562 F7200.000
G1 Z1.300 F7200.000
G1 E0.80000 F2100.00000
G1 F1043.21
G1 X124.987 Y107.576 E0.01307
G1 X125.348 Y107.562 E0.01411
G1 F5760
G1 X124.987 Y107.576 E-0.12528
G1 F5760
G1 X124.652 Y107.562 E-0.11608
G1 E-0.55863 F2100.00000
G1 Z1.800 F7200.000
G1 X125.397 Y107.250 F7200.000
G1 Z1.500 F7200.000
G1 E0.80000 F2100.00000
M204 S800
G1 F900
G1 X125.000 Y107.284 E0.01348
G1 X124.603 Y107.250 E0.01348
G1 X124.219 Y107.147 E0.01348
G1 X123.858 Y106.978 E0.01348
G1 X123.532 Y106.750 E0.01348
G1 X123.250 Y106.468 E0.01348
G1 X123.022 Y106.142 E0.01348
G1 X122.853 Y105.781 E0.01348
G1 X122.750 Y105.397 E0.01348
G1 X122.716 Y105.000 E0.01348
G1 X122.750 Y104.603 E0.01348
G1 X122.853 Y104.219 E0.01348
G1 X123.022 Y103.858 E0.01348
G1 X123.250 Y103.532 E0.01348
G1 X123.532 Y103.250 E0.01348
G1 X123.858 Y103.022 E0.01348
G1 X124.219 Y102.853 E0.01348
G1 X124.603 Y102.750 E0.01348
G1 X124.989 Y102.716 E0.01309
G1 X125.395 Y102.750 E0.01380
G1 X125.781 Y102.853 E0.01354
G1 X126.142 Y103.022 E0.01348
G1 X126.468 Y103.250 E0.01348
G1 X126.750 Y103.532 E0.01348
G1 X126.978 Y103.858 E0.01348
G1 X127.147 Y104.219 E0.01348
G1 X127.250 Y104.603 E0.01348
G1 X127.284 Y105.000 E0.01348
G1 X127.250 Y105.397 E0.01348
G1 X127.147 Y105.781 E0.01348
G1 X126.978 Y106.142 E0.01348
G1 X126.750 Y106.468 E0.01348
G1 X126.468 Y106.750 E0.01348
G1 X126.142 Y106.978 E0.01348
G1 X125.781 Y107.147 E0.01348
G1 X125.455 Y107.234 E0.01145
M204 S1000
G1 X125.349 Y106.841 F7200.000
M204 S800
G1 F900
G1 X125.000 Y106.876 E0.01188
G1 X124.674 Y106.847 E0.01107
G1 X124.358 Y106.763 E0.01107
G1 X124.062 Y106.625 E0.01107
G1 X123.794 Y106.437 E0.01107
G1 X123.563 Y106.206 E0.01107
G1 X123.375 Y105.938 E0.01107
G1 X123.237 Y105.642 E0.01107
G1 X123.153 Y105.326 E0.01107
G1 X123.124 Y105.000 E0.01107
G1 X123.153 Y104.674 E0.01107
G1 X123.237 Y104.358 E0.01107
G1 X123.375 Y104.062 E0.01107
G1 X123.563 Y103.794 E0.01107
